static/img/kroki/3db8bb4d2e8bd5846387d3c1cf54d2bb.svg

<?xml version="1.0" encoding="us-ascii" standalone="no"?><svg xmlns="http://www.w3.org/2000/svg" xmlns:xlink="http://www.w3.org/1999/xlink" contentStyleType="text/css" height="352px" preserveAspectRatio="none" style="width:555px;height:352px;" version="1.1" viewBox="0 0 555 352" width="555px" zoomAndPan="magnify"><defs/><g><!--class digitalocean_container_registry--><g id="elem_digitalocean_container_registry"><rect codeLine="22" fill="#3D176E" height="39.7891" id="digitalocean_container_registry" rx="2.5" ry="2.5" style="stroke:#000D19;stroke-width:0.5;" width="304" x="29.5" y="106.79"/><ellipse cx="44.5" cy="126.6845" fill="#ADD1B2" rx="11" ry="11" style="stroke:#181818;stroke-width:1.0;"/><path d="M47.4688,132.3252 Q46.8906,132.622 46.25,132.7627 Q45.6094,132.9189 44.9063,132.9189 Q42.4063,132.9189 41.0781,131.2783 Q39.7656,129.622 39.7656,126.497 Q39.7656,123.372 41.0781,121.7158 Q42.4063,120.0595 44.9063,120.0595 Q45.6094,120.0595 46.25,120.2158 Q46.9063,120.372 47.4688,120.6689 L47.4688,123.3877 Q46.8438,122.8095 46.25,122.5439 Q45.6563,122.2627 45.0313,122.2627 Q43.6875,122.2627 43,123.3408 Q42.3125,124.4033 42.3125,126.497 Q42.3125,128.5908 43,129.6689 Q43.6875,130.7314 45.0313,130.7314 Q45.6563,130.7314 46.25,130.4658 Q46.8438,130.1845 47.4688,129.6064 L47.4688,132.3252 Z " fill="#000000"/><text fill="#D9B8FF" font-family="Helvetica" font-size="17" lengthAdjust="spacing" textLength="262" x="63.5" y="132.5698">digitalocean_container_registry</text></g><!--class digitalocean_container_registry_repository--><g id="elem_digitalocean_container_registry_repository"><rect codeLine="24" fill="#3D176E" height="39.7891" id="digitalocean_container_registry_repository" rx="2.5" ry="2.5" style="stroke:#000D19;stroke-width:0.5;" width="397" x="7" y="206.58"/><ellipse cx="22" cy="226.4745" fill="#ADD1B2" rx="11" ry="11" style="stroke:#181818;stroke-width:1.0;"/><path d="M24.9688,232.1152 Q24.3906,232.412 23.75,232.5527 Q23.1094,232.7089 22.4063,232.7089 Q19.9063,232.7089 18.5781,231.0683 Q17.2656,229.412 17.2656,226.287 Q17.2656,223.162 18.5781,221.5058 Q19.9063,219.8495 22.4063,219.8495 Q23.1094,219.8495 23.75,220.0058 Q24.4063,220.162 24.9688,220.4589 L24.9688,223.1777 Q24.3438,222.5995 23.75,222.3339 Q23.1563,222.0527 22.5313,222.0527 Q21.1875,222.0527 20.5,223.1308 Q19.8125,224.1933 19.8125,226.287 Q19.8125,228.3808 20.5,229.4589 Q21.1875,230.5214 22.5313,230.5214 Q23.1563,230.5214 23.75,230.2558 Q24.3438,229.9745 24.9688,229.3964 L24.9688,232.1152 Z " fill="#000000"/><text fill="#D9B8FF" font-family="Helvetica" font-size="17" lengthAdjust="spacing" textLength="355" x="41" y="232.3598">digitalocean_container_registry_repository</text></g><!--class digitalocean_container_registry_repository_tag--><g id="elem_digitalocean_container_registry_repository_tag"><rect codeLine="26" fill="#3D176E" height="39.7891" id="digitalocean_container_registry_repository_tag" rx="2.5" ry="2.5" style="stroke:#000D19;stroke-width:0.5;" width="433" x="115" y="306.37"/><ellipse cx="130" cy="326.2645" fill="#ADD1B2" rx="11" ry="11" style="stroke:#181818;stroke-width:1.0;"/><path d="M132.9688,331.9052 Q132.3906,332.202 131.75,332.3427 Q131.1094,332.4989 130.4063,332.4989 Q127.9063,332.4989 126.5781,330.8583 Q125.2656,329.202 125.2656,326.077 Q125.2656,322.952 126.5781,321.2958 Q127.9063,319.6395 130.4063,319.6395 Q131.1094,319.6395 131.75,319.7958 Q132.4063,319.952 132.9688,320.2489 L132.9688,322.9677 Q132.3438,322.3895 131.75,322.1239 Q131.1563,321.8427 130.5313,321.8427 Q129.1875,321.8427 128.5,322.9208 Q127.8125,323.9833 127.8125,326.077 Q127.8125,328.1708 128.5,329.2489 Q129.1875,330.3114 130.5313,330.3114 Q131.1563,330.3114 131.75,330.0458 Q132.3438,329.7645 132.9688,329.1864 L132.9688,331.9052 Z " fill="#000000"/><text fill="#D9B8FF" font-family="Helvetica" font-size="17" lengthAdjust="spacing" textLength="391" x="149" y="332.1498">digitalocean_container_registry_repository_tag</text></g><!--class digitalocean_team--><g id="elem_digitalocean_team"><rect codeLine="28" fill="#3D176E" height="39.7891" id="digitalocean_team" rx="2.5" ry="2.5" style="stroke:#000D19;stroke-width:0.5;" width="196" x="288.5" y="7"/><ellipse cx="303.5" cy="26.8945" fill="#ADD1B2" rx="11" ry="11" style="stroke:#181818;stroke-width:1.0;"/><path d="M306.4688,32.5352 Q305.8906,32.832 305.25,32.9727 Q304.6094,33.1289 303.9063,33.1289 Q301.4063,33.1289 300.0781,31.4883 Q298.7656,29.832 298.7656,26.707 Q298.7656,23.582 300.0781,21.9258 Q301.4063,20.2695 303.9063,20.2695 Q304.6094,20.2695 305.25,20.4258 Q305.9063,20.582 306.4688,20.8789 L306.4688,23.5977 Q305.8438,23.0195 305.25,22.7539 Q304.6563,22.4727 304.0313,22.4727 Q302.6875,22.4727 302,23.5508 Q301.3125,24.6133 301.3125,26.707 Q301.3125,28.8008 302,29.8789 Q302.6875,30.9414 304.0313,30.9414 Q304.6563,30.9414 305.25,30.6758 Q305.8438,30.3945 306.4688,29.8164 L306.4688,32.5352 Z " fill="#000000"/><text fill="#D9B8FF" font-family="Helvetica" font-size="17" lengthAdjust="spacing" textLength="154" x="322.5" y="32.7798">digitalocean_team</text></g><!--link digitalocean_container_registry to digitalocean_container_registry_repository--><g id="link_digitalocean_container_registry_digitalocean_container_registry_repository"><path codeLine="30" d="M186.24,147.01 C190.45,164.15 195.1288,183.2332 199.3388,200.3732 " fill="none" id="digitalocean_container_registry-to-digitalocean_container_registry_repository" style="stroke:#1A83AF;stroke-width:2.0;"/><polygon fill="#1A83AF" points="200.77,206.2,202.5077,196.5057,199.5773,201.3443,194.7387,198.4139,200.77,206.2" style="stroke:#1A83AF;stroke-width:2.0;"/></g><!--link digitalocean_container_registry_repository to digitalocean_container_registry_repository_tag--><g id="link_digitalocean_container_registry_repository_digitalocean_container_registry_repository_tag"><path codeLine="31" d="M230.39,246.8 C252.48,263.94 279.8404,285.1708 301.9204,302.3108 " fill="none" id="digitalocean_container_registry_repository-to-digitalocean_container_registry_repository_tag" style="stroke:#1A83AF;stroke-width:2.0;"/><polygon fill="#1A83AF" points="306.66,305.99,302.0034,297.3115,302.7104,302.924,297.0978,303.6309,306.66,305.99" style="stroke:#1A83AF;stroke-width:2.0;"/></g><!--link digitalocean_team to digitalocean_container_registry--><g id="link_digitalocean_team_digitalocean_container_registry"><path codeLine="32" d="M346,47.22 C310.06,64.36 263.2454,86.6967 227.3354,103.8267 " fill="none" id="digitalocean_team-to-digitalocean_container_registry" style="stroke:#1A83AF;stroke-width:2.0;"/><polygon fill="#1A83AF" points="221.92,106.41,231.7653,106.1453,226.4328,104.2573,228.3209,98.9248,221.92,106.41" style="stroke:#1A83AF;stroke-width:2.0;"/></g><!--link digitalocean_team to digitalocean_container_registry_repository--><g id="link_digitalocean_team_digitalocean_container_registry_repository"><path codeLine="33" d="M385.12,47.25 C382.38,72.63 374.3,117.37 350.5,146.58 C328.06,174.14 298.8641,191.1682 269.0241,203.8182 " fill="none" id="digitalocean_team-to-digitalocean_container_registry_repository" style="stroke:#1A83AF;stroke-width:2.0;"/><polygon fill="#1A83AF" points="263.5,206.16,273.3474,206.33,268.1034,204.2085,270.225,198.9645,263.5,206.16" style="stroke:#1A83AF;stroke-width:2.0;"/></g><!--link digitalocean_team to digitalocean_container_registry_repository_tag--><g id="link_digitalocean_team_digitalocean_container_registry_repository_tag"><path codeLine="34" d="M396.63,47.28 C415.74,86.63 452.5,177.97 421.5,246.37 C409.92,271.92 390.5159,289.1223 370.0359,302.8323 " fill="none" id="digitalocean_team-to-digitalocean_container_registry_repository_tag" style="stroke:#1A83AF;stroke-width:2.0;"/><polygon fill="#1A83AF" points="365.05,306.17,374.7541,304.4873,369.2049,303.3885,370.3037,297.8394,365.05,306.17" style="stroke:#1A83AF;stroke-width:2.0;"/></g><!--SRC=[fP11Jy9048Nl_HMRS2Pf9Lguc5GIeXTYn9inPEZEbWtjRZCxID3utsr5pTfQ4BXjzdqpxxrPQea2YvAtei1YWUG2jzAc189294HsCxQv9T5J2jGWReeJQ_WWC8K2nItcByWwXIRnkDJfog1puiAJRY1TPMJNHkxMCu5nbOI6FMgSWtC9C-d5cj4B8qUBeL9DihcqDv1HV8Kjp994-aB2C9JHg8aSjDhR-uUOwLSKaN-qgMLinMnPV59xKzQ45x9Lz5llp7WFKcgJYKllxs6NYGpIh__P4gJTrBI2tFasZf7GyhR4SQiLZePInN_2TrrmMbzEI9rfXjoc26QULYr0Lv7cX9bsJ5ln5hp_ZwmUfNMQxOb3SuQiQv2ngbHhXzBsdtfHCXmaa-V-zH7UmH7TJhIewmNjKiTiEtEyi-yvc-fQ7m00]--></g></svg>

<svg xmlns="http://www.w3.org/2000/svg" width="555" height="352" viewBox="0 0 555 352"><rect width="304" height="39.789" x="29.5" y="106.79" fill="#3D176E" rx="2.5" ry="2.5" style="stroke:#000d19;stroke-width:.5"/><circle cx="44.5" cy="126.684" r="11" fill="#ADD1B2" style="stroke:#181818;stroke-width:1"/><path d="M47.469 132.325q-.578.297-1.219.438-.64.156-1.344.156-2.5 0-3.828-1.64-1.312-1.657-1.312-4.782t1.312-4.781q1.328-1.656 3.828-1.656.703 0 1.344.156.656.156 1.219.453v2.719q-.625-.579-1.219-.844-.594-.281-1.219-.281-1.343 0-2.031 1.078-.687 1.062-.687 3.156t.687 3.172q.688 1.062 2.031 1.062.625 0 1.219-.265.594-.281 1.219-.86z"/><text x="63.5" y="132.57" fill="#D9B8FF" font-family="Helvetica" font-size="17" textLength="262">digitalocean_container_registry</text><rect width="397" height="39.789" x="7" y="206.58" fill="#3D176E" rx="2.5" ry="2.5" style="stroke:#000d19;stroke-width:.5"/><circle cx="22" cy="226.475" r="11" fill="#ADD1B2" style="stroke:#181818;stroke-width:1"/><path d="M24.969 232.115q-.578.297-1.219.438-.64.156-1.344.156-2.5 0-3.828-1.64-1.312-1.657-1.312-4.782t1.312-4.781q1.328-1.656 3.828-1.656.703 0 1.344.156.656.156 1.219.453v2.719q-.625-.578-1.219-.844-.594-.281-1.219-.281-1.343 0-2.031 1.078-.687 1.062-.687 3.156t.687 3.172q.688 1.062 2.031 1.062.625 0 1.219-.265.594-.281 1.219-.86z"/><text x="41" y="232.36" fill="#D9B8FF" font-family="Helvetica" font-size="17" textLength="355">digitalocean_container_registry_repository</text><rect width="433" height="39.789" x="115" y="306.37" fill="#3D176E" rx="2.5" ry="2.5" style="stroke:#000d19;stroke-width:.5"/><circle cx="130" cy="326.264" r="11" fill="#ADD1B2" style="stroke:#181818;stroke-width:1"/><path d="M132.969 331.905q-.578.297-1.219.438-.64.156-1.344.156-2.5 0-3.828-1.64-1.312-1.657-1.312-4.782t1.312-4.781q1.328-1.656 3.828-1.656.703 0 1.344.156.656.156 1.219.453v2.719q-.625-.579-1.219-.844-.594-.281-1.219-.281-1.344 0-2.031 1.078-.687 1.062-.687 3.156t.687 3.172q.688 1.062 2.031 1.062.625 0 1.219-.265.594-.281 1.219-.86z"/><text x="149" y="332.15" fill="#D9B8FF" font-family="Helvetica" font-size="17" textLength="391">digitalocean_container_registry_repository_tag</text><rect width="196" height="39.789" x="288.5" y="7" fill="#3D176E" rx="2.5" ry="2.5" style="stroke:#000d19;stroke-width:.5"/><circle cx="303.5" cy="26.895" r="11" fill="#ADD1B2" style="stroke:#181818;stroke-width:1"/><path d="M306.469 32.535q-.578.297-1.219.438-.64.156-1.344.156-2.5 0-3.828-1.64-1.312-1.657-1.312-4.782t1.312-4.781q1.328-1.656 3.828-1.656.703 0 1.344.156.656.156 1.219.453v2.719q-.625-.578-1.219-.844-.594-.281-1.219-.281-1.344 0-2.031 1.078-.687 1.062-.687 3.156t.687 3.172q.688 1.062 2.031 1.062.625 0 1.219-.265.594-.281 1.219-.86z"/><text x="322.5" y="32.78" fill="#D9B8FF" font-family="Helvetica" font-size="17" textLength="154">digitalocean_team</text><path fill="none" d="M186.24 147.01c4.21 17.14 8.889 36.223 13.099 53.363" style="stroke:#1a83af;stroke-width:2"/><path fill="#1A83AF" d="m200.77 206.2 1.738-9.694-2.93 4.838-4.84-2.93z" style="stroke:#1a83af;stroke-width:2"/><path fill="none" d="M230.39 246.8c22.09 17.14 49.45 38.37 71.53 55.51" style="stroke:#1a83af;stroke-width:2"/><path fill="#1A83AF" d="m306.66 305.99-4.657-8.678.707 5.612-5.612.707z" style="stroke:#1a83af;stroke-width:2"/><path fill="none" d="M346 47.22c-35.94 17.14-82.755 39.477-118.665 56.607" style="stroke:#1a83af;stroke-width:2"/><path fill="#1A83AF" d="m221.92 106.41 9.845-.265-5.332-1.888 1.888-5.332z" style="stroke:#1a83af;stroke-width:2"/><path fill="none" d="M385.12 47.25c-2.74 25.38-10.82 70.12-34.62 99.33-22.44 27.56-51.636 44.588-81.476 57.238" style="stroke:#1a83af;stroke-width:2"/><path fill="#1A83AF" d="m263.5 206.16 9.847.17-5.244-2.122 2.122-5.244z" style="stroke:#1a83af;stroke-width:2"/><path fill="none" d="M396.63 47.28c19.11 39.35 55.87 130.69 24.87 199.09-11.58 25.55-30.984 42.752-51.464 56.462" style="stroke:#1a83af;stroke-width:2"/><path fill="#1A83AF" d="m365.05 306.17 9.704-1.683-5.55-1.099 1.1-5.549z" style="stroke:#1a83af;stroke-width:2"/></svg>
